branches/nugui/src/gui/icons/file_saveas.svg

<?xml version="1.0" encoding="UTF-8" standalone="no"?>
<!-- Created with Inkscape (http://www.inkscape.org/) -->

<svg
   xmlns:dc="http://purl.org/dc/elements/1.1/"
   xmlns:cc="http://creativecommons.org/ns#"
   xmlns:rdf="http://www.w3.org/1999/02/22-rdf-syntax-ns#"
   xmlns:svg="http://www.w3.org/2000/svg"
   xmlns="http://www.w3.org/2000/svg"
   xmlns:xlink="http://www.w3.org/1999/xlink"
   xmlns:inkscape="http://www.inkscape.org/namespaces/inkscape"
   version="1.0"
   width="100"
   height="100"
   id="svg2">
  <metadata
     id="metadata2566">
    <rdf:RDF>
      <cc:Work
         rdf:about="">
        <dc:format>image/svg+xml</dc:format>
        <dc:type
           rdf:resource="http://purl.org/dc/dcmitype/StillImage" />
      </cc:Work>
    </rdf:RDF>
  </metadata>
  <defs
     id="defs4">
    <linearGradient
       x1="15.350921"
       y1="46.012268"
       x2="80.354599"
       y2="46.012268"
       id="linearGradient2191"
       xlink:href="#linearGradient5072"
       gradientUnits="userSpaceOnUse"
       gradientTransform="matrix(1.3775501,0,0,1.3775501,-19.143842,-15.268738)" />
    <linearGradient
       x1="32.94278"
       y1="25.952555"
       x2="66.236534"
       y2="25.952555"
       id="linearGradient2188"
       xlink:href="#linearGradient5064"
       gradientUnits="userSpaceOnUse"
       gradientTransform="matrix(1.3775501,0,0,1.3775501,-19.143842,-15.268738)" />
    <linearGradient
       id="linearGradient4210">
      <stop
         id="stop4212"
         style="stop-color:#bc4200;stop-opacity:1"
         offset="0" />
      <stop
         id="stop4214"
         style="stop-color:#bc4200;stop-opacity:0"
         offset="1" />
    </linearGradient>
    <linearGradient
       id="linearGradient5072">
      <stop
         id="stop5074"
         style="stop-color:#862bff;stop-opacity:1"
         offset="0" />
      <stop
         id="stop5076"
         style="stop-color:#9b50ff;stop-opacity:1"
         offset="1" />
    </linearGradient>
    <linearGradient
       id="linearGradient5064">
      <stop
         id="stop5066"
         style="stop-color:#dadada;stop-opacity:1"
         offset="0" />
      <stop
         id="stop5068"
         style="stop-color:#898989;stop-opacity:1"
         offset="1" />
    </linearGradient>
    <linearGradient
       x1="-105.52"
       y1="36.78183"
       x2="-68.944054"
       y2="36.78183"
       id="linearGradient6219"
       xlink:href="#linearGradient4210"
       gradientUnits="userSpaceOnUse" />
  </defs>
  <g
     transform="matrix(1.2779915,0,0,1.2779915,-104.81679,-17.509058)"
     id="g2244"
     style="fill:#282828;fill-opacity:1">
    <path
       d="m 88.982804,21.695016 59.736506,0 9.03763,8.596768 0,60.177369 -68.774136,0 0,-68.774137 z"
       inkscape:connector-curvature="0"
       id="path3266"
       style="fill:#282828;fill-opacity:1;fill-rule:evenodd;stroke:none" />
    <rect
       width="4.4322443"
       height="3.9189899"
       x="91.684052"
       y="84.238586"
       id="rect3268"
       style="fill:#282828;fill-opacity:1;fill-rule:evenodd;stroke:none" />
  </g>
  <path
     d="m 2.8293587,4.169092 76.3427543,0 11.55001,10.98659 0,76.906175 -87.8927643,0 0,-87.892765 z"
     inkscape:connector-curvature="0"
     id="path3270"
     style="fill:url(#linearGradient2191);fill-opacity:1;fill-rule:evenodd;stroke:#000000;stroke-width:1.6530602;stroke-linecap:round;stroke-linejoin:round;stroke-miterlimit:4;stroke-opacity:1;stroke-dashoffset:0" />
  <path
     d="m 27.063024,4.145322 0,32.673772 44.21075,0 0,-32.673772 -44.21075,0 z m 28.282827,5.98374 10.374674,0 0,21.136783 -10.374674,0 0,-21.136783 z"
     inkscape:connector-curvature="0"
     id="path3272"
     style="fill:url(#linearGradient2188);fill-opacity:1;fill-rule:evenodd;stroke:#000000;stroke-width:1.6530602;stroke-linecap:round;stroke-linejoin:round;stroke-miterlimit:4;stroke-opacity:1;stroke-dashoffset:0" />
  <rect
     width="62.547966"
     height="46.213783"
     x="15.633184"
     y="45.877808"
     id="rect3274"
     style="fill:#ffffff;fill-opacity:1;fill-rule:evenodd;stroke:#000000;stroke-width:1.6530602;stroke-linecap:round;stroke-linejoin:round;stroke-miterlimit:4;stroke-opacity:1;stroke-dasharray:none;stroke-dashoffset:0" />
  <rect
     width="5.6643705"
     height="5.0084357"
     x="6.2815151"
     y="84.099236"
     id="rect3276"
     style="fill:#ffffff;fill-opacity:1;fill-rule:evenodd;stroke:#000000;stroke-width:0.80041945;stroke-linecap:round;stroke-linejoin:round;stroke-miterlimit:4;stroke-opacity:1;stroke-dasharray:none;stroke-dashoffset:0" />
  <g
     transform="matrix(0.616806,0.3829703,-0.3829703,0.616806,173.92624,56.115747)"
     id="g6205">
    <g
       transform="translate(-77.399047,0.7830501)"
       id="g6199">
      <g
         id="g5226"
         style="fill:#ffffff;fill-opacity:1;stroke:none">
        <path
           d="m -74.841104,7.566462 -7.569224,13.110282 -15.13845,0 -7.569222,-13.110282 7.569222,-13.1102819 15.13845,0 z"
           transform="matrix(1.0139304,0,0,0.3297573,35.7056,1.4430872)"
           id="path4235"
           style="fill:#ffffff;fill-opacity:1;fill-rule:evenodd;stroke:none" />
        <path
           d="m -40.178071,76.396007 0,-72.3926381 -7.674667,4.3232112 -15.349334,0 -7.674665,-4.3232112 0,72.3926381 7.674665,4.323211 15.349335,0 7.674666,-4.323211 z"
           inkscape:connector-curvature="0"
           id="path4237"
           style="fill:#ffffff;fill-opacity:1;fill-rule:evenodd;stroke:none" />
      </g>
      <path
         d="m -63.202075,80.579515 7.674667,0 7.674667,0 7.674666,-4.323212 -15.042585,24.642127 -15.656077,-24.642127 7.674662,4.323212 z"
         inkscape:connector-curvature="0"
         id="path4239"
         style="fill:#ffffff;fill-opacity:1;fill-rule:evenodd;stroke:none" />
    </g>
    <g
       transform="translate(-43.380784,6.362515)"
       id="g4222">
      <path
         d="m -74.841104,7.566462 -7.569224,13.110282 -15.13845,0 -7.569222,-13.110282 7.569222,-13.1102819 15.13845,0 z"
         transform="matrix(1.0139304,0,0,0.3297573,1.6873374,-4.1363775)"
         id="path3193"
         style="fill:#ad5626;fill-opacity:1;fill-rule:evenodd;stroke:#000000;stroke-width:2.16176629;stroke-linecap:butt;stroke-linejoin:round;stroke-miterlimit:4;stroke-opacity:1;stroke-dasharray:none;stroke-dashoffset:0" />
      <path
         d="m -74.196334,70.816542 0,-72.3926378 -7.674667,4.3232112 -15.349334,0 -7.674665,-4.3232112 0,72.3926378 7.674665,4.323211 15.349335,0 7.674666,-4.323211 z"
         inkscape:connector-curvature="0"
         id="path2217"
         style="fill:url(#linearGradient6219);fill-opacity:1;fill-rule:evenodd;stroke:#000000;stroke-width:1.25;stroke-linecap:butt;stroke-linejoin:round;stroke-miterlimit:4;stroke-opacity:1;stroke-dasharray:none;stroke-dashoffset:0" />
      <path
         d="m -97.220338,75.00005 7.674667,0 7.674667,0 7.674666,-4.323212 -15.042585,24.642127 -15.656077,-24.642127 7.674662,4.323212 z"
         inkscape:connector-curvature="0"
         id="path3209"
         style="fill:none;stroke:#000000;stroke-width:1.25;stroke-linecap:butt;stroke-linejoin:round;stroke-miterlimit:4;stroke-opacity:1;stroke-dasharray:none;stroke-dashoffset:0" />
      <path
         d="m -97.17565,2.6789416 0,71.9439274 7.981415,20.318916 7.278547,-20.318916 0,-71.9439274"
         inkscape:connector-curvature="0"
         id="path3200"
         style="fill:none;stroke:#000000;stroke-width:1.25;stroke-linecap:butt;stroke-linejoin:round;stroke-miterlimit:4;stroke-opacity:1;stroke-dasharray:none;stroke-dashoffset:0" />
      <path
         d="m -50.321709,8.3219433 a 4.9164886,2.6028471 0 1 1 -9.832977,0 4.9164886,2.6028471 0 1 1 9.832977,0 z"
         transform="matrix(1.0139267,0,0,0.7346394,-33.573834,-8.0223189)"
         id="path4218"
         style="fill:#000000;fill-opacity:1;fill-rule:evenodd;stroke:#000000;stroke-width:1px;stroke-linecap:butt;stroke-linejoin:miter;stroke-opacity:1" />
      <path
         d="m -112.78119,97.85276 -3.80768,-6.595092 7.61536,0 z"
         transform="translate(23.312883,-2.6584867)"
         id="path4220"
         style="fill:#000000;fill-opacity:1;fill-rule:evenodd;stroke:#000000;stroke-width:1.25;stroke-linecap:butt;stroke-linejoin:round;stroke-miterlimit:4;stroke-opacity:1;stroke-dasharray:none;stroke-dashoffset:0" />
    </g>
  </g>
</svg>

<?xml version="1.0" encoding="UTF-8" standalone="no"?>
<!-- Created with Inkscape (http://www.inkscape.org/) -->
<svg
   xmlns:dc="http://purl.org/dc/elements/1.1/"
   xmlns:cc="http://web.resource.org/cc/"
   xmlns:rdf="http://www.w3.org/1999/02/22-rdf-syntax-ns#"
   xmlns:svg="http://www.w3.org/2000/svg"
   xmlns="http://www.w3.org/2000/svg"
   xmlns:xlink="http://www.w3.org/1999/xlink"
   xmlns:sodipodi="http://sodipodi.sourceforge.net/DTD/sodipodi-0.dtd"
   xmlns:inkscape="http://www.inkscape.org/namespaces/inkscape"
   version="1.0"
   width="100"
   height="100"
   id="svg2"
   sodipodi:version="0.32"
   inkscape:version="0.45.1"
   sodipodi:docname="file_saveas.svg"
   sodipodi:docbase="/home/tris/src/aten/src/gui-qt/icons"
   inkscape:output_extension="org.inkscape.output.svg.inkscape">
  <metadata
     id="metadata2566">
    <rdf:RDF>
      <cc:Work
         rdf:about="">
        <dc:format>image/svg+xml</dc:format>
        <dc:type
           rdf:resource="http://purl.org/dc/dcmitype/StillImage" />
      </cc:Work>
    </rdf:RDF>
  </metadata>
  <sodipodi:namedview
     inkscape:window-height="714"
     inkscape:window-width="1024"
     inkscape:pageshadow="2"
     inkscape:pageopacity="0.0"
     guidetolerance="10.0"
     gridtolerance="10.0"
     objecttolerance="10.0"
     borderopacity="1.0"
     bordercolor="#666666"
     pagecolor="#ffffff"
     id="base"
     inkscape:zoom="5.01"
     inkscape:cx="50"
     inkscape:cy="50"
     inkscape:window-x="15"
     inkscape:window-y="98"
     inkscape:current-layer="svg2" />
  <defs
     id="defs4">
    <linearGradient
       inkscape:collect="always"
       xlink:href="#linearGradient5072"
       id="linearGradient2191"
       gradientUnits="userSpaceOnUse"
       x1="15.350921"
       y1="46.012269"
       x2="80.354601"
       y2="46.012269"
       gradientTransform="matrix(1.3775501,0,0,1.3775501,-19.143842,-15.268738)" />
    <linearGradient
       inkscape:collect="always"
       xlink:href="#linearGradient5064"
       id="linearGradient2188"
       gradientUnits="userSpaceOnUse"
       x1="32.942781"
       y1="25.952554"
       x2="66.236531"
       y2="25.952554"
       gradientTransform="matrix(1.3775501,0,0,1.3775501,-19.143842,-15.268738)" />
    <linearGradient
       inkscape:collect="always"
       id="linearGradient4210">
      <stop
         style="stop-color:#bc4200;stop-opacity:1;"
         offset="0"
         id="stop4212" />
      <stop
         style="stop-color:#bc4200;stop-opacity:0;"
         offset="1"
         id="stop4214" />
    </linearGradient>
    <linearGradient
       id="linearGradient5072">
      <stop
         style="stop-color:#862bff;stop-opacity:1;"
         offset="0"
         id="stop5074" />
      <stop
         style="stop-color:#9b50ff;stop-opacity:1;"
         offset="1"
         id="stop5076" />
    </linearGradient>
    <linearGradient
       id="linearGradient5064">
      <stop
         style="stop-color:#dadada;stop-opacity:1;"
         offset="0"
         id="stop5066" />
      <stop
         style="stop-color:#898989;stop-opacity:1;"
         offset="1"
         id="stop5068" />
    </linearGradient>
    <linearGradient
       inkscape:collect="always"
       xlink:href="#linearGradient4210"
       id="linearGradient6219"
       gradientUnits="userSpaceOnUse"
       x1="-105.52"
       y1="36.781829"
       x2="-68.944054"
       y2="36.78183" />
    <linearGradient
       inkscape:collect="always"
       xlink:href="#linearGradient5072"
       id="linearGradient6227"
       gradientUnits="userSpaceOnUse"
       gradientTransform="matrix(1.0779024,0,0,1.0779024,-10.764663,-9.2311113)"
       x1="15.350921"
       y1="46.012269"
       x2="80.354601"
       y2="46.012269" />
    <linearGradient
       inkscape:collect="always"
       xlink:href="#linearGradient5064"
       id="linearGradient6229"
       gradientUnits="userSpaceOnUse"
       gradientTransform="matrix(1.0779024,0,0,1.0779024,-10.764663,-9.2311113)"
       x1="32.942781"
       y1="25.952554"
       x2="66.236531"
       y2="25.952554" />
  </defs>
  <g
     id="g2244"
     transform="matrix(1.2779915,0,0,1.2779915,-104.81679,-17.509058)"
     style="fill:#282828;fill-opacity:1">
    <path
       style="fill:#282828;fill-opacity:1;fill-rule:evenodd;stroke:none;stroke-width:1.20000005;stroke-linecap:round;stroke-linejoin:round;stroke-miterlimit:4;stroke-dashoffset:0;stroke-opacity:1"
       d="M 88.982804,21.695016 L 148.71931,21.695016 L 157.75694,30.291784 L 157.75694,90.469153 L 88.982804,90.469153 L 88.982804,21.695016 z "
       id="path3266"
       sodipodi:nodetypes="cccccc" />
    <rect
       style="fill:#282828;fill-opacity:1;fill-rule:evenodd;stroke:none;stroke-width:0.58104563;stroke-linecap:round;stroke-linejoin:round;stroke-miterlimit:4;stroke-dasharray:none;stroke-dashoffset:0;stroke-opacity:1"
       id="rect3268"
       width="4.4322443"
       height="3.9189899"
       x="91.684052"
       y="84.238586" />
  </g>
  <path
     style="fill:url(#linearGradient2191);fill-opacity:1;fill-rule:evenodd;stroke:#000000;stroke-width:1.6530602;stroke-linecap:round;stroke-linejoin:round;stroke-miterlimit:4;stroke-dashoffset:0;stroke-opacity:1"
     d="M 2.8293587,4.169092 L 79.172113,4.169092 L 90.722123,15.155682 L 90.722123,92.061857 L 2.8293587,92.061857 L 2.8293587,4.169092 z "
     id="path3270"
     sodipodi:nodetypes="cccccc" />
  <path
     style="fill:url(#linearGradient2188);fill-opacity:1;fill-rule:evenodd;stroke:#000000;stroke-width:1.6530602;stroke-linecap:round;stroke-linejoin:round;stroke-miterlimit:4;stroke-dashoffset:0;stroke-opacity:1"
     d="M 27.063024,4.145322 L 27.063024,36.819094 L 71.273774,36.819094 L 71.273774,4.145322 L 27.063024,4.145322 z M 55.345851,10.129062 L 65.720525,10.129062 L 65.720525,31.265845 L 55.345851,31.265845 L 55.345851,10.129062 z "
     id="path3272" />
  <rect
     style="fill:#ffffff;fill-opacity:1;fill-rule:evenodd;stroke:#000000;stroke-width:1.6530602;stroke-linecap:round;stroke-linejoin:round;stroke-miterlimit:4;stroke-dasharray:none;stroke-dashoffset:0;stroke-opacity:1"
     id="rect3274"
     width="62.547966"
     height="46.213783"
     x="15.633184"
     y="45.877808" />
  <rect
     style="fill:#ffffff;fill-opacity:1;fill-rule:evenodd;stroke:#000000;stroke-width:0.80041945;stroke-linecap:round;stroke-linejoin:round;stroke-miterlimit:4;stroke-dasharray:none;stroke-dashoffset:0;stroke-opacity:1"
     id="rect3276"
     width="5.6643705"
     height="5.0084357"
     x="6.2815151"
     y="84.099236" />
  <g
     id="g6205"
     transform="matrix(0.616806,0.3829703,-0.3829703,0.616806,173.92624,56.115747)">
    <g
       transform="translate(-77.399047,0.7830501)"
       id="g6199">
      <g
         id="g5226"
         style="fill:#ffffff;fill-opacity:1;stroke:none">
        <path
           transform="matrix(1.0139304,0,0,0.3297573,35.7056,1.4430872)"
           d="M -74.841104,7.566462 L -82.410328,20.676744 L -97.548778,20.676744 L -105.118,7.566462 L -97.548778,-5.5438199 L -82.410328,-5.5438199 L -74.841104,7.566462 z "
           inkscape:randomized="0"
           inkscape:rounded="0"
           inkscape:flatsided="true"
           sodipodi:arg2="0.52359878"
           sodipodi:arg1="0"
           sodipodi:r2="13.110283"
           sodipodi:r1="15.13845"
           sodipodi:cy="7.566462"
           sodipodi:cx="-89.979553"
           sodipodi:sides="6"
           id="path4235"
           style="fill:#ffffff;fill-opacity:1;fill-rule:evenodd;stroke:none;stroke-width:2.16176629;stroke-linecap:butt;stroke-linejoin:round;stroke-miterlimit:4;stroke-dasharray:none;stroke-dashoffset:0;stroke-opacity:1"
           sodipodi:type="star" />
        <path
           sodipodi:nodetypes="ccccccccc"
           d="M -40.178071,76.396007 L -40.178071,4.0033689 L -47.852738,8.3265801 L -63.202072,8.3265801 L -70.876737,4.0033689 L -70.876737,76.396007 L -63.202072,80.719218 L -47.852737,80.719218 L -40.178071,76.396007 z "
           style="fill:#ffffff;fill-opacity:1;fill-rule:evenodd;stroke:none;stroke-width:1.25;stroke-linecap:butt;stroke-linejoin:round;stroke-miterlimit:4;stroke-dasharray:none;stroke-dashoffset:0;stroke-opacity:1"
           id="path4237" />
      </g>
      <path
         id="path4239"
         style="fill:#ffffff;fill-opacity:1;fill-rule:evenodd;stroke:none;stroke-width:1.25;stroke-linecap:butt;stroke-linejoin:round;stroke-miterlimit:4;stroke-dasharray:none;stroke-dashoffset:0;stroke-opacity:1"
         d="M -63.202075,80.579515 L -55.527408,80.579515 L -47.852741,80.579515 L -40.178075,76.256303 L -55.22066,100.89843 L -70.876737,76.256303 L -63.202075,80.579515 z "
         sodipodi:nodetypes="ccccccc" />
    </g>
    <g
       transform="translate(-43.380784,6.362515)"
       id="g4222">
      <path
         sodipodi:type="star"
         style="opacity:1;fill:#ad5626;fill-opacity:1;fill-rule:evenodd;stroke:#000000;stroke-width:2.16176629;stroke-linecap:butt;stroke-linejoin:round;stroke-miterlimit:4;stroke-dasharray:none;stroke-dashoffset:0;stroke-opacity:1"
         id="path3193"
         sodipodi:sides="6"
         sodipodi:cx="-89.979553"
         sodipodi:cy="7.566462"
         sodipodi:r1="15.13845"
         sodipodi:r2="13.110283"
         sodipodi:arg1="0"
         sodipodi:arg2="0.52359878"
         inkscape:flatsided="true"
         inkscape:rounded="0"
         inkscape:randomized="0"
         d="M -74.841104,7.566462 L -82.410328,20.676744 L -97.548778,20.676744 L -105.118,7.566462 L -97.548778,-5.5438199 L -82.410328,-5.5438199 L -74.841104,7.566462 z "
         transform="matrix(1.0139304,0,0,0.3297573,1.6873374,-4.1363775)" />
      <path
         id="path2217"
         style="fill:url(#linearGradient6219);fill-opacity:1;fill-rule:evenodd;stroke:#000000;stroke-width:1.25;stroke-linecap:butt;stroke-linejoin:round;stroke-miterlimit:4;stroke-dasharray:none;stroke-dashoffset:0;stroke-opacity:1"
         d="M -74.196334,70.816542 L -74.196334,-1.5760958 L -81.871001,2.7471154 L -97.220335,2.7471154 L -104.895,-1.5760958 L -104.895,70.816542 L -97.220335,75.139753 L -81.871,75.139753 L -74.196334,70.816542 z "
         sodipodi:nodetypes="ccccccccc" />
      <path
         id="path3209"
         style="fill:none;fill-opacity:1;fill-rule:evenodd;stroke:#000000;stroke-width:1.25;stroke-linecap:butt;stroke-linejoin:round;stroke-miterlimit:4;stroke-dasharray:none;stroke-dashoffset:0;stroke-opacity:1"
         d="M -97.220338,75.00005 L -89.545671,75.00005 L -81.871004,75.00005 L -74.196338,70.676838 L -89.238923,95.318965 L -104.895,70.676838 L -97.220338,75.00005 z "
         sodipodi:nodetypes="ccccccc" />
      <path
         id="path3200"
         style="fill:none;fill-opacity:1;fill-rule:evenodd;stroke:#000000;stroke-width:1.25;stroke-linecap:butt;stroke-linejoin:round;stroke-miterlimit:4;stroke-dasharray:none;stroke-dashoffset:0;stroke-opacity:1"
         d="M -97.17565,2.6789416 L -97.17565,74.622869 L -89.194235,94.941785 L -81.915688,74.622869 L -81.915688,2.6789416"
         sodipodi:nodetypes="ccccc" />
      <path
         sodipodi:type="arc"
         style="fill:#000000;fill-opacity:1;fill-rule:evenodd;stroke:#000000;stroke-width:1px;stroke-linecap:butt;stroke-linejoin:miter;stroke-opacity:1"
         id="path4218"
         sodipodi:cx="-55.238197"
         sodipodi:cy="8.3219433"
         sodipodi:rx="4.9164886"
         sodipodi:ry="2.6028471"
         d="M -50.321709 8.3219433 A 4.9164886 2.6028471 0 1 1  -60.154686,8.3219433 A 4.9164886 2.6028471 0 1 1  -50.321709 8.3219433 z"
         transform="matrix(1.0139267,0,0,0.7346394,-33.573834,-8.0223189)" />
      <path
         sodipodi:type="star"
         style="opacity:1;fill:#000000;fill-opacity:1;fill-rule:evenodd;stroke:#000000;stroke-width:1.25;stroke-linecap:butt;stroke-linejoin:round;stroke-miterlimit:4;stroke-dasharray:none;stroke-dashoffset:0;stroke-opacity:1"
         id="path4220"
         sodipodi:sides="3"
         sodipodi:cx="-112.78119"
         sodipodi:cy="93.456032"
         sodipodi:r1="4.396728"
         sodipodi:r2="2.198364"
         sodipodi:arg1="1.5707963"
         sodipodi:arg2="2.6179939"
         inkscape:flatsided="true"
         inkscape:rounded="0"
         inkscape:randomized="0"
         d="M -112.78119,97.85276 L -116.58887,91.257668 L -108.97351,91.257668 L -112.78119,97.85276 z "
         transform="translate(23.312883,-2.6584867)" />
    </g>
  </g>
</svg>
